svg/fluentui-system-icons/ic_fluent_emoji_hint_16_filled.svg

<svg width="16" height="16" viewBox="0 0 16 16" fill="none" xmlns="http://www.w3.org/2000/svg">
<path d="M6.82979 2.11422C6.55889 2.16781 6.38274 2.43086 6.43633 2.70175C6.48992 2.97264 6.75296 3.1488 7.02385 3.09521C7.65461 2.97043 8.34581 2.97043 8.97657 3.09521C9.24746 3.1488 9.5105 2.97264 9.5641 2.70175C9.61769 2.43086 9.44153 2.16781 9.17064 2.11422C8.41274 1.96429 7.58768 1.96429 6.82979 2.11422ZM11.3343 3.01093C11.1048 2.85731 10.7942 2.91879 10.6406 3.14826C10.487 3.37772 10.5485 3.68828 10.7779 3.8419C11.3234 4.20709 11.7932 4.67683 12.1583 5.2223C12.312 5.45177 12.6225 5.51325 12.852 5.35962C13.0814 5.206 13.1429 4.89545 12.9893 4.66598C12.5514 4.01189 11.9883 3.44884 11.3343 3.01093ZM5.22248 3.8419C5.45195 3.68828 5.51343 3.37772 5.35981 3.14826C5.20618 2.91879 4.89563 2.85731 4.66616 3.01093C4.01207 3.44884 3.44902 4.01189 3.01112 4.66598C2.85749 4.89545 2.91898 5.206 3.14844 5.35963C3.37791 5.51325 3.68846 5.45177 3.84209 5.2223C4.20727 4.67683 4.67701 4.20709 5.22248 3.8419ZM13.886 6.8296C13.8324 6.55871 13.5694 6.38255 13.2985 6.43614C13.0276 6.48973 12.8514 6.75278 12.905 7.02367C13.0298 7.65442 13.0298 8.34563 12.905 8.97638C12.8514 9.24728 13.0276 9.51032 13.2985 9.56391C13.5694 9.6175 13.8324 9.44135 13.886 9.17045C14.036 8.41256 14.036 7.5875 13.886 6.8296ZM3.09539 7.02367C3.14898 6.75278 2.97282 6.48973 2.70193 6.43614C2.43104 6.38255 2.16799 6.55871 2.1144 6.8296C1.96447 7.5875 1.96447 8.41256 2.1144 9.17045C2.16799 9.44135 2.43104 9.6175 2.70193 9.56391C2.97282 9.51032 3.14898 9.24728 3.09539 8.97638C2.97061 8.34563 2.97061 7.65442 3.09539 7.02367ZM12.9893 11.3341C13.1429 11.1046 13.0814 10.7941 12.852 10.6404C12.6225 10.4868 12.312 10.5483 12.1583 10.7778C11.7932 11.3232 11.3234 11.793 10.7779 12.1582C10.5485 12.3118 10.487 12.6223 10.6406 12.8518C10.7942 13.0813 11.1048 13.1427 11.3343 12.9891C11.9883 12.5512 12.5514 11.9882 12.9893 11.3341ZM3.84209 10.7778C3.68846 10.5483 3.37791 10.4868 3.14844 10.6404C2.91898 10.7941 2.85749 11.1046 3.01112 11.3341C3.44902 11.9882 4.01207 12.5512 4.66616 12.9891C4.89563 13.1427 5.20618 13.0813 5.35981 12.8518C5.51343 12.6223 5.45195 12.3118 5.22248 12.1582C4.67701 11.793 4.20727 11.3232 3.84209 10.7778ZM7.02385 12.9048C6.75296 12.8513 6.48992 13.0274 6.43633 13.2983C6.38274 13.5692 6.55889 13.8322 6.82979 13.8858C7.58768 14.0358 8.41274 14.0358 9.17064 13.8858C9.44153 13.8322 9.61769 13.5692 9.5641 13.2983C9.51051 13.0274 9.24746 12.8513 8.97657 12.9048C8.34581 13.0296 7.65461 13.0296 7.02385 12.9048ZM12.0002 8.00003C12.0002 10.2092 10.2093 12 8.00021 12C5.79107 12 4.00021 10.2092 4.00021 8.00003C4.00021 5.79089 5.79107 4.00003 8.00021 4.00003C10.2093 4.00003 12.0002 5.79089 12.0002 8.00003ZM10.3005 9.10052C10.0798 8.93465 9.76634 8.97916 9.60046 9.19993C9.23473 9.68673 8.65413 10 8.00021 10C7.34629 10 6.7657 9.68673 6.39996 9.19993C6.23409 8.97916 5.92065 8.93465 5.69987 9.10052C5.4791 9.2664 5.43459 9.57983 5.60046 9.80061C6.14695 10.528 7.01853 11 8.00021 11C8.98189 11 9.85347 10.528 10.4 9.80061C10.5658 9.57983 10.5213 9.2664 10.3005 9.10052ZM6.25021 7.50003C6.66442 7.50003 7.00021 7.16424 7.00021 6.75003C7.00021 6.33581 6.66442 6.00003 6.25021 6.00003C5.836 6.00003 5.50021 6.33581 5.50021 6.75003C5.50021 7.16424 5.836 7.50003 6.25021 7.50003ZM10.5002 6.75003C10.5002 6.33581 10.1644 6.00003 9.75021 6.00003C9.336 6.00003 9.00021 6.33581 9.00021 6.75003C9.00021 7.16424 9.336 7.50003 9.75021 7.50003C10.1644 7.50003 10.5002 7.16424 10.5002 6.75003Z" fill="#212121"/>
</svg>

<svg xmlns="http://www.w3.org/2000/svg" width="16" height="16"><path d="M6.83 2.114a.5.5 0 0 0 .194.981 5.14 5.14 0 0 1 1.953 0 .5.5 0 0 0 .194-.98 6.147 6.147 0 0 0-2.341 0Zm4.504.897a.5.5 0 0 0-.556.83 5.029 5.029 0 0 1 1.38 1.381.5.5 0 0 0 .831-.556 6.031 6.031 0 0 0-1.655-1.655Zm-6.112.83a.5.5 0 1 0-.556-.83 6.03 6.03 0 0 0-1.655 1.655.5.5 0 1 0 .831.556 5.03 5.03 0 0 1 1.38-1.38Zm8.664 2.989a.5.5 0 1 0-.981.194c.125.63.125 1.322 0 1.952a.5.5 0 0 0 .981.194 6.14 6.14 0 0 0 0-2.34Zm-10.79.194a.5.5 0 0 0-.982-.194 6.147 6.147 0 0 0 0 2.34.5.5 0 1 0 .981-.194 5.14 5.14 0 0 1 0-1.952Zm9.893 4.31a.5.5 0 0 0-.83-.556 5.03 5.03 0 0 1-1.381 1.38.5.5 0 0 0 .556.831 6.03 6.03 0 0 0 1.655-1.655Zm-9.147-.556a.5.5 0 1 0-.83.556 6.03 6.03 0 0 0 1.654 1.655.5.5 0 1 0 .556-.83 5.031 5.031 0 0 1-1.38-1.381Zm3.182 2.127a.5.5 0 0 0-.194.98 6.14 6.14 0 0 0 2.34 0 .5.5 0 1 0-.193-.98 5.14 5.14 0 0 1-1.953 0ZM12 8a4 4 0 1 1-8 0 4 4 0 0 1 8 0Zm-1.7 1.1a.5.5 0 0 0-.7.1c-.365.487-.946.8-1.6.8a1.996 1.996 0 0 1-1.6-.8.5.5 0 0 0-.8.6A2.996 2.996 0 0 0 8 11c.982 0 1.853-.472 2.4-1.2a.5.5 0 0 0-.1-.7ZM6.25 7.5a.75.75 0 1 0 0-1.5.75.75 0 0 0 0 1.5Zm4.25-.75a.75.75 0 1 0-1.5 0 .75.75 0 0 0 1.5 0Z"/></svg>
